X:545
T: Der Hausierer (245), S. 433
N: T0433
O: Luxemburg
S: Singendes Volk, Esch-Alzette, 1937 posth.]
N: Hamm, fff Susanna Erasmy, 15.6.1933
R: Berufslied]
M: 2/4
L: 1/16
K: G
 | G3GG2G2 | G4D4 | D4z4
B3BB2B2 | B4G4 | G4z4
d4d4d2e2 | d4c4c4
c4G4B4 | B4A4A4
A4D4D4 | G4z4

